X:1
T:Title
%%score 1 { 2 | ( 3 4 ) }
L:1/8
Q:1/4=110
M:4/4
K:Db
V:1 treble nm="Grand Piano, Soprano"
V:2 bass nm="Choir Pad, Christ at Bethlehem"
V:3 bass 
V:4 bass 
V:1
 A2 F2 F2 A2 | d2 A2 A4 | B2 G2 G2 B2 | A2 F2 E4 | A2 F2 F2 A2 | d2 B2 B4 | A2 F2 F2 E2 | %7
w: By~Willilam~Smyth~Babcock~Mathews * * *|||||||
 D4 D2 z2 | [GB]2 [Bd]2 [Bd]4 | [FA]2 [Fd]2 [Fd]4 | [CE]2 [CE][DF] [EG]2 [FA]2 | %11
w: ||||
 [GB]2 [FA]2 [FA]4 | [FA]2 [DF]2 [DF]2 [FA]2 | [GB]2 [Gd]2 [Gd]4 | [FA]2 [DF]2 [DF]2 [CE]2 | %15
w: ||||
 D4 D4- | D4 z4 |] %17
w: ||
V:2
 A,4 A,4 | A,4 A,4 | [G,B,]4 B,4 | A,4 C4 | A,4 A,4 | [G,B,D]4 [B,D]4 | [F,A,]4 A,4 | A,8 | %8
 G,2 G,2 G,4 | A,2 A,2 A,4 | A,2 A,2 A,2 A,2 | G,2 A,2[K:treble] D4 | D2 A,2 A,2 D2 | %13
 D2[K:bass] B,2 B,4 | D2 A,2 A,2 G,2 | F,4 F,4- | F,4 z4 |] %17
V:3
 [D,F,]4 F,4 | [D,F,]4 F,4 | z4 G,4 | F,4 [E,A,]4 | [D,F,]4 F,4 | z4 G,4 | z4 G,4 | [D,F,]8 | z8 | %9
 D,2 D,2 D,4 | A,,2 A,,2 A,,2 A,,2 | D,2 D,2 D,4 | D,2 D,2 D,2 D,2 | G,2 G,2 G,4 | %14
 A,2 z2 A,,2 A,,2 | D,4 D,4- | D,4 z4 |] %17
V:4
 x8 | x8 | G,,8 | A,,8 | x8 | A,,8 | A,,8 | x8 | x8 | x8 | x8 | x8 | x8 | x8 | x8 | x8 | x8 |] %17

